flaticon/household/air-conditioner-1.svg

<svg xmlns="http://www.w3.org/2000/svg" width="32" height="32" viewBox="0 0 24 24">
    <path d="M10 5.398438C5.589844 5.398438 2 8.988281 2 13.398438 2 17.8125 5.589844 21.398438 10 21.398438 14.410156 21.398438 18 17.8125 18 13.398438 18 8.988281 14.410156 5.398438 10 5.398438zM17.199219 13.398438C17.199219 14.582031 16.90625 15.699219 16.398438 16.683594L16.398438 10.117188C16.90625 11.101562 17.199219 12.21875 17.199219 13.398438zM8.398438 6.386719C8.789062 6.296875 9.191406 6.242188 9.601562 6.21875L9.601562 20.578125C9.191406 20.558594 8.789062 20.503906 8.398438 20.414062zM7.601562 20.179688C7.179688 20.03125 6.78125 19.847656 6.398438 19.625L6.398438 7.175781C6.78125 6.953125 7.179688 6.769531 7.601562 6.621094zM10.398438 6.21875C10.808594 6.242188 11.210938 6.296875 11.601562 6.386719L11.601562 20.414062C11.210938 20.503906 10.808594 20.558594 10.398438 20.578125zM12.398438 6.621094C12.820312 6.769531 13.21875 6.953125 13.601562 7.175781L13.601562 19.625C13.21875 19.847656 12.820312 20.03125 12.398438 20.179688zM3.601562 10.117188L3.601562 16.683594C3.09375 15.699219 2.800781 14.582031 2.800781 13.402344 2.800781 12.21875 3.09375 11.101562 3.601562 10.117188zM4.398438 17.914062L4.398438 8.882812C4.753906 8.449219 5.15625 8.058594 5.601562 7.714844L5.601562 19.085938C5.15625 18.742188 4.753906 18.351562 4.398438 17.914062zM14.398438 19.085938L14.398438 7.714844C14.84375 8.058594 15.246094 8.449219 15.601562 8.882812L15.601562 17.914062C15.246094 18.351562 14.84375 18.742188 14.398438 19.085938zM16.800781 21.800781L22.398438 21.800781 22.398438 19.398438 16.800781 19.398438zM17.601562 20.199219L21.601562 20.199219 21.601562 21 17.601562 21zM17.601562 20.199219"/>
    <path d="M 20.398438 3 L 23.601562 3 C 23.820312 3 24 2.820312 24 2.601562 C 24 2.378906 23.820312 2.199219 23.601562 2.199219 L 20.398438 2.199219 C 19.65625 2.199219 19.035156 2.710938 18.855469 3.398438 L 18.035156 3.398438 C 18.226562 2.265625 19.210938 1.398438 20.398438 1.398438 L 23.199219 1.398438 C 23.421875 1.398438 23.601562 1.222656 23.601562 1 C 23.601562 0.777344 23.421875 0.601562 23.199219 0.601562 L 20.398438 0.601562 C 18.769531 0.601562 17.425781 1.824219 17.226562 3.398438 L 0 3.398438 L 0 23.398438 L 24 23.398438 L 24 3.398438 L 19.710938 3.398438 C 19.851562 3.160156 20.105469 3 20.398438 3 Z M 23.199219 22.601562 L 0.800781 22.601562 L 0.800781 4.199219 L 23.199219 4.199219 Z M 23.199219 22.601562"/>
</svg>

<svg xmlns="http://www.w3.org/2000/svg" width="32" height="32" viewBox="0 0 24 24">
    <path d="M10 5.398c-4.41 0-8 3.59-8 8 0 4.415 3.59 8 8 8s8-3.585 8-8c0-4.41-3.59-8-8-8zm7.2 8a7.15 7.15 0 0 1-.802 3.286v-6.567c.508.985.801 2.102.801 3.281zM8.397 6.387c.391-.09.793-.145 1.204-.168v14.36a6.81 6.81 0 0 1-1.204-.165zM7.602 20.18a7.001 7.001 0 0 1-1.204-.555V7.175a7.001 7.001 0 0 1 1.204-.554zm2.796-13.961c.41.023.813.078 1.204.168v14.027a6.81 6.81 0 0 1-1.204.164zm2 .402c.422.149.82.332 1.204.555v12.449a7.001 7.001 0 0 1-1.204.555zm-8.796 3.496v6.567a7.146 7.146 0 0 1-.801-3.282c0-1.183.293-2.3.8-3.285zm.796 7.797V8.883a7.4 7.4 0 0 1 1.204-1.168v11.37a7.266 7.266 0 0 1-1.204-1.17zm10 1.172V7.715a7.4 7.4 0 0 1 1.204 1.168v9.031a7.266 7.266 0 0 1-1.204 1.172zm0 0M16.8 21.8h5.598v-2.402h-5.597zm.802-1.6h4v.8h-4zm0 0"/>
    <path d="M20.398 3h3.204a.4.4 0 0 0 0-.8h-3.204a1.6 1.6 0 0 0-1.543 1.198h-.82a2.401 2.401 0 0 1 2.363-2H23.2a.398.398 0 1 0 0-.796h-2.8a3.202 3.202 0 0 0-3.172 2.796H0v20h24v-20h-4.29A.798.798 0 0 1 20.399 3zM23.2 22.602H.801V4.199h22.398zm0 0"/>
</svg>
